X: 163
T: The fisherman's widow
C: anon.
O: Ireland
B: Francis O'Neill: "The Dance Music of Ireland" (1907) no. 163
R: Double jig
Z: Transcribed by Frank Nordberg - http://www.musicaviva.com
F: http://www.musicaviva.com/abc/tunes/ireland/oneill-1001/oneill-1001-016
3.abc
M: 6/8
L: 1/8
K: D
F2G AFA|dcA AGF|G3 ABc|ded cAG|F2G AFA|dcA AGF|GFG ABG|AFD D3::d2e f2d|
dcA ABc|d2e f2g|afd dcA|[1 d2e f2d|ecA AGF|GFG ABG|AFD D3:|[2 afa geg|fed
 cAF|G2A BAG|AFD D3|]
W:
W:
W: From Musica Viva - http://www.musicaviva.com
W: the Internet center for free sheet music downloads.


